X: 10670
T: Down The Broom
R: reel
M: 4/4
K: Amixolydian
A3G|EA{B}A^G ABcd|egfd efge|DGBG AGBG|=cGBG AGED|
EA{B}A^G ABcd|(3efg fd efgb|afge cdea|gedg eAAG|
EAA^G ABcd|egf^d efgA|DG(3GGG AGGB|=cGBG AGED|
EAA^G ABcd|(3efg fd efgb|afge cdea|gedg eAA^G|
|:Aa{b}a^g agea|(3a^ga bg a=gef|{a}gfga (3gfg dg|(3efg ab gedg|
ea{b}a^g agea|(3a^ga bg a=gef|gfge cdea|1 gedg eAA^G:|2 gedg eAAG||

